X:270
T:Fraser Arms, The
R:Reel
B:The Athole Collection
M:C|
L:1/8
K:B_
B,|D2 DB FDEC|D3 B FDdB|cABG FDEC|D2 Dd cA G:|
fddb fdec|fddf gabg|fddb fdec|DFBd cA G2|fddb fdec|fddf gabg|
fdcA BGFE|DCB,d cA G||

